X: 47
T:Brighton Camp
% Nottingham Music Database
%P:AABBCCDD
S:Trad, via EF
M:4/4
L:1/4
K:G
P:A
|:g/2f/2|"G"ed/2c/2 BA|"G"BG "C"EE/2F/2|"G"GG G/2A/2B/2c/2|\
"G"dd/2c/2 "D7"Bg/2f/2|
"G"ed/2c/2 BA|"G"BG "C"EG|"D7"F/2G/2A/2F/2 DE/2F/2|"G"G2 G:|
P:B
|:d/2c/2|"G"Bd "D7"ef|"G"gd/2c/2 "D7"B/2A/2G|"G"B/2c/2d ef|"A7"g2 "D7"fg/2f/2|
"G"ed/2c/2 BA|"G"B/2A/2G/2F/2 "C"EG|"D7"F/2G/2A/2F/2 D/2E/2F/2D/2|"G"G2 G:|
P:C
|:D|"G"GB/2c/2 "D7"de/2f/2|"G"gd/2c/2 B/2A/2G|"G"B/2c/2d ef|"A7"g2 "D7"fg/2f/2|
"G"ed/2c/2 BA|"G"B/2A/2G/2F/2 "C"EG|"D7"F/2G/2A/2F/2 D/2E/2F/2D/2|"G"G2 G:|
P:D
|:B/2c/2|"G"dB "D7"d/2c/2A/2B/2|"G"cA "D7"G/2F/2E/2D/2|"G"GG/2F/2 G/2A/2B/2c/2|
"G"d/2e/2d/2c/2 "D7"Bg/2f/2|"G"ed/2c/2 BA|"G"BG "C"EG|"D7"F/2G/2A/2F/2 DE/2F/2\
|"G"G2 G:|<end>
<start>
